X:2
T: MORGEN MUESSEN WIR VERREISEN
N: B0490
O: Europa, Mitteleuropa, Deutschland
R: Abschieds - Lied
M: 3/4
L: 1/16
K: F
 | A3AA2B2A2B2 | d4c4z4
d3cd2c2A2F2 | G8z4
G3GG2A2G2A2 | c4B4
c3B | A6F2B2d2 | d4c4
c3f | f4A2d2c3E | F8z4

